packages/ui/src/lib/icons/svg/ai-plus.svg

<svg width="100%" height="100%" viewBox="0 0 16 16" fill="none" xmlns="http://www.w3.org/2000/svg">
  <path
    d="M8.33203 7.33301L8.44434 7.55566L8.66699 7.66797L11.3252 9L8.66699 10.332L8.44434 10.4443L8.33203 10.667L7 13.3252L5.66797 10.667L5.55566 10.4443L5.33301 10.332L2.67383 9L5.33301 7.66797L5.55566 7.55566L5.66797 7.33301L7 4.67383L8.33203 7.33301Z"
    stroke="currentColor" stroke-width="1.5" />
  <path d="M12.5 0L12.5 7M16 3.5L9 3.5" stroke="currentColor" stroke-width="1.5" />
</svg>

<svg xmlns="http://www.w3.org/2000/svg" fill="none" viewBox="0 0 16 16" width="100%" height="100%"><path stroke="currentColor" stroke-width="1.5" d="m8.332 7.333.112.223.223.112L11.325 9l-2.658 1.332-.223.112-.112.223L7 13.325l-1.332-2.658-.112-.223-.223-.112L2.673 9l2.66-1.332.223-.112.112-.223L7 4.673zM12.5 0v7M16 3.5H9"/></svg>
